Arcticons/scalable/apps/number8.svg

<svg id="Layer_2" data-name="Layer 2" viewBox="0 0 48 48" xmlns="http://www.w3.org/2000/svg">
 <defs>
  <style>.cls-1{fill:none;stroke:#fff;stroke-linecap:round;stroke-linejoin:round;}</style>
 </defs>
 <path class="cls-1" d="m26.24 24a6.75 6.75 0 0 0 6.76-6.75 6.75 6.75 0 0 0-6.75-6.75h-4.49a6.75 6.75 0 0 0-6.76 6.75 6.75 6.75 0 0 0 6.76 6.75 6.75 6.75 0 0 0-6.76 6.75 6.75 6.75 0 0 0 6.75 6.75h4.48a6.75 6.75 0 0 0 6.77-6.75 6.75 6.75 0 0 0-6.76-6.75"/>
 <path class="cls-1" d="m40.5 5.5h-33a2 2 0 0 0-2 2v33a2 2 0 0 0 2 2h33a2 2 0 0 0 2-2v-33a2 2 0 0 0-2-2z"/>
</svg>

<svg id="Layer_2" data-name="Layer 2" xmlns="http://www.w3.org/2000/svg" viewBox="0 0 48 48"><defs><style>.cls-1{fill:none;stroke:#fff;stroke-linecap:round;stroke-linejoin:round;}</style></defs><path class="cls-1" d="M26.24,24A6.75,6.75,0,0,0,33,17.25h0a6.75,6.75,0,0,0-6.75-6.75H21.76A6.75,6.75,0,0,0,15,17.25h0A6.75,6.75,0,0,0,21.76,24h0A6.75,6.75,0,0,0,15,30.75h0a6.75,6.75,0,0,0,6.75,6.75h4.48A6.75,6.75,0,0,0,33,30.75h0A6.75,6.75,0,0,0,26.24,24"/><path class="cls-1" d="M40.5,5.5H7.5a2,2,0,0,0-2,2v33a2,2,0,0,0,2,2h33a2,2,0,0,0,2-2V7.5A2,2,0,0,0,40.5,5.5Z"/></svg>
